projects/seb-pictograms/svg/light/61-Picto-Light_black.svg

<svg xmlns="http://www.w3.org/2000/svg" viewBox="0 0 170 170"><path d="M77 136.7h16.1v3H77z"/><path d="M111.9 16H58.1a12.5 12.5 0 00-12.5 12.5v113A12.5 12.5 0 0058.1 154H112a12.5 12.5 0 0012.5-12.5v-113A12.5 12.5 0 00111.9 16zm-53.8 3H112a9.5 9.5 0 019.5 9.5v14.4H48.6V28.5a9.5 9.5 0 019.5-9.5zm63.4 26.9v77.9H48.6V45.9zM111.9 151H58.1a9.5 9.5 0 01-9.5-9.5v-14.7h72.9v14.7a9.5 9.5 0 01-9.6 9.5z"/></svg>

<svg id="PIKTO_LIGHT" xmlns="http://www.w3.org/2000/svg" viewBox="0 0 170 170"><title>light_black</title><rect x="77" y="136.7" width="16.1" height="3"/><path d="M111.9,16H58.1A12.5,12.5,0,0,0,45.6,28.5v113A12.5,12.5,0,0,0,58.1,154h53.9a12.5,12.5,0,0,0,12.5-12.5V28.5A12.5,12.5,0,0,0,111.9,16ZM58.1,19h53.9a9.5,9.5,0,0,1,9.5,9.5V42.9H48.6V28.5A9.5,9.5,0,0,1,58.1,19Zm63.4,26.9v77.9H48.6V45.9ZM111.9,151H58.1a9.5,9.5,0,0,1-9.5-9.5V126.8h72.9v14.7A9.5,9.5,0,0,1,111.9,151Z"/></svg>
